svgs/regular/dungeon.svg

<svg xmlns="http://www.w3.org/2000/svg" viewBox="0 0 512 512"><!--! Font Awesome Pro 6.0.0-alpha3 by @fontawesome - https://fontawesome.com License - https://fontawesome.com/license (Commercial License) --><path d="M512 295.4c0-8.375-1.875-16.5-5.375-23.62c3.75-7.875 5.562-16.56 5.188-25.44c-1.25-35.13-9.813-69.13-25.06-101c-4.375-8.875-11-16.44-19-21.81c-1.5-9.625-5.375-18.69-11.5-26.44c-21.25-26.75-47.31-48.81-77.31-65.31c-8.25-4.5-17.31-6.875-26.56-6.875c-.5 0-.875 0-1.375 .125c-6.75-7.125-15.25-12.38-24.75-15C303.4 3.375 279.6 0 256 0C232.4 0 208.6 3.375 185.8 10c-9.5 2.625-18 7.875-24.75 15C160.5 24.88 160.1 24.88 159.6 24.88c-9.25 0-18.31 2.375-26.56 6.875C103.2 48.25 76.1 70.25 55.75 97.13C49.62 104.8 45.75 113.8 44.25 123.5c-8 5.375-14.62 12.94-18.1 21.81C9.1 177.2 1.5 211.1 .125 246.4c-.25 8.75 1.5 17.5 5.25 25.38C1.75 279.1 0 287.2 0 295.4v57.25C0 361 1.875 368.9 5.25 376C1.875 383.1 0 391 0 399.4v57.25C0 487.1 24.88 512 55.38 512h401.3C487.1 512 512 487.1 512 456.6v-57.25C512 391 510.1 383.1 506.8 376C510.1 368.9 512 361 512 352.6V295.4zM112 456.6C112 460.6 108.6 464 104.6 464H55.38C51.38 464 48 460.6 48 456.6v-57.25C48 395.4 51.38 392 55.38 392h49.25C108.6 392 112 395.4 112 399.4V456.6zM112 352.6C112 356.6 108.6 360 104.6 360H55.38C51.38 360 48 356.6 48 352.6V295.4C48 291.4 51.38 288 55.38 288h49.25C108.6 288 112 291.4 112 295.4V352.6zM133.2 204.1c-6 14-9.875 29-10.75 44.88C122.2 252.9 119.2 256 115.2 256H55.75C51.5 256 48 252.4 48.12 248.1c1.125-29.25 8.375-57 20.38-82C69.75 163.5 72.5 162 75.38 162c1.375 0 2.75 .375 4 1.125l51.12 32C133.6 197 134.6 200.9 133.2 204.1zM150.1 171c-1.25 0-2.625-.25-3.75-1l-51.13-32c-3.75-2.25-4.75-7.625-2-11c17.25-21.62 38.63-39.75 62.88-53.12c1.125-.625 2.375-1 3.5-1c3.125 0 6 1.875 7.25 4.875L189 134c1.25 3.375-.125 7-3.125 8.875C174.6 149.9 164.5 158.5 155.8 168.5C154.2 170.1 152.2 171 150.1 171zM208 456c0 4.375-3.625 8-8 8h-16c-4.375 0-8-3.625-8-8V203.1c8.125-12.25 19.25-22.37 32-29.75V456zM272 456c0 4.375-3.625 8-8 8h-16c-4.375 0-8-3.625-8-8V161.6C245.2 160.8 250.5 160 256 160s10.75 .75 16 1.625V456zM288.9 126.8c-.625 0-1.25-.125-1.875-.25C276 123.6 265.1 122.2 256 122.2c-10 0-20 1.5-30.88 4.25c-.7499 .125-1.375 .25-2 .25c-3 0-5.75-1.75-6.875-4.625l-22.12-56C192.6 62 194.8 57.25 199 56.12C217.1 50.88 236.2 48 256 48s38.88 2.875 57 8.125c4.25 1.125 6.375 5.875 4.875 10l-22.12 56C294.6 125 291.9 126.8 288.9 126.8zM336 456c0 4.375-3.625 8-8 8h-16c-4.375 0-8-3.625-8-8V173.4c12.75 7.5 23.88 17.5 32 29.75V456zM361.9 171c-2.125 0-4.125-.875-5.625-2.5c-8.75-10-18.87-18.62-30.12-25.62C323.1 141 321.8 137.4 323 134l22.12-56.25c1.25-3 4.125-4.875 7.25-4.875c1.125 0 2.375 .375 3.5 .875c24.25 13.37 45.63 31.5 62.88 53.12c2.75 3.5 1.75 8.75-2 11.12l-51.13 32C364.5 170.8 363.1 171 361.9 171zM389.5 249c-.875-15.88-4.75-30.88-10.75-44.88c-1.375-3.25-.375-7.125 2.75-9l51.13-32c1.25-.75 2.625-1.125 4-1.125c2.875 0 5.625 1.5 6.875 4.125c12 25 19.25 52.75 20.38 82C464 252.4 460.5 256 456.3 256h-59.5C392.8 256 389.8 252.9 389.5 249zM464 456.6c0 4-3.375 7.375-7.375 7.375h-49.25C403.4 464 400 460.6 400 456.6v-57.25c0-4 3.375-7.375 7.375-7.375h49.25c4 0 7.375 3.375 7.375 7.375V456.6zM464 352.6c0 4-3.375 7.375-7.375 7.375h-49.25c-4 0-7.375-3.375-7.375-7.375V295.4C400 291.4 403.4 288 407.4 288h49.25C460.6 288 464 291.4 464 295.4V352.6z"/></svg>

<svg xmlns="http://www.w3.org/2000/svg" viewBox="0 0 512 512"><!-- Font Awesome Pro 6.0.0-alpha2 by @fontawesome - https://fontawesome.com License - https://fontawesome.com/license (Commercial License) --><path d="M512 295.375C512 287 510.125 278.875 506.625 271.75C510.375 263.875 512.125 255.125 511.75 246.25C510.5 211.125 502 177.125 486.75 145.25C482.375 136.375 475.75 128.875 467.75 123.5C466.25 113.875 462.375 104.75 456.25 97C435 70.25 409 48.25 379 31.75C370.75 27.25 361.625 24.875 352.375 24.875C351.875 24.875 351.5 24.875 351 25C344.25 17.875 335.75 12.625 326.25 10C303.375 3.375 279.625 0 256 0C232.375 0 208.625 3.375 185.75 10C176.25 12.625 167.75 17.875 161 25C160.5 24.875 160.125 24.875 159.625 24.875C150.375 24.875 141.25 27.25 133 31.75C103.125 48.25 77 70.25 55.75 97.125C49.625 104.75 45.75 113.75 44.25 123.5C36.25 128.875 29.625 136.375 25.25 145.25C10 177.125 1.5 211.125 0.125 246.375C-0.125 255.125 1.625 263.875 5.375 271.75C1.75 279.125 0 287.25 0 295.375V352.625C0 361 1.875 368.875 5.25 376C1.875 383.125 0 391 0 399.375V456.625C0 487.125 24.875 512 55.375 512H456.625C487.125 512 512 487.125 512 456.625V399.375C512 391 510.125 383.125 506.75 376C510.125 368.875 512 361 512 352.625V295.375ZM112 456.625C112 460.625 108.625 464 104.625 464H55.375C51.375 464 48 460.625 48 456.625V399.375C48 395.375 51.375 392 55.375 392H104.625C108.625 392 112 395.375 112 399.375V456.625ZM112 352.625C112 356.625 108.625 360 104.625 360H55.375C51.375 360 48 356.625 48 352.625V295.375C48 291.375 51.375 288 55.375 288H104.625C108.625 288 112 291.375 112 295.375V352.625ZM133.25 204.125C127.25 218.125 123.375 233.125 122.5 249C122.25 252.875 119.25 256 115.25 256H55.75C51.5 256 48 252.375 48.125 248.125C49.25 218.875 56.5 191.125 68.5 166.125C69.75 163.5 72.5 162 75.375 162C76.75 162 78.125 162.375 79.375 163.125L130.5 195.125C133.625 197 134.625 200.875 133.25 204.125ZM150.125 171C148.875 171 147.5 170.75 146.375 170L95.25 138C91.5 135.75 90.5 130.375 93.25 127C110.5 105.375 131.875 87.25 156.125 73.875C157.25 73.25 158.5 72.875 159.625 72.875C162.75 72.875 165.625 74.75 166.875 77.75L189 134C190.25 137.375 188.875 141 185.875 142.875C174.625 149.875 164.5 158.5 155.75 168.5C154.25 170.125 152.25 171 150.125 171ZM208 456C208 460.375 204.375 464 200 464H184C179.625 464 176 460.375 176 456V203.125C184.125 190.875 195.25 180.75 208 173.375V456ZM272 456C272 460.375 268.375 464 264 464H248C243.625 464 240 460.375 240 456V161.625C245.25 160.75 250.5 160 256 160S266.75 160.75 272 161.625V456ZM288.875 126.75C288.25 126.75 287.625 126.625 287 126.5C276 123.625 266 122.25 256 122.25C246 122.25 236 123.75 225.125 126.5C224.375 126.625 223.75 126.75 223.125 126.75C220.125 126.75 217.375 125 216.25 122.125L194.125 66.125C192.625 62 194.75 57.25 199 56.125C217.125 50.875 236.25 48 256 48S294.875 50.875 313 56.125C317.25 57.25 319.375 62 317.875 66.125L295.75 122.125C294.625 125 291.875 126.75 288.875 126.75ZM336 456C336 460.375 332.375 464 328 464H312C307.625 464 304 460.375 304 456V173.375C316.75 180.875 327.875 190.875 336 203.125V456ZM361.875 171C359.75 171 357.75 170.125 356.25 168.5C347.5 158.5 337.375 149.875 326.125 142.875C323.125 141 321.75 137.375 323 134L345.125 77.75C346.375 74.75 349.25 72.875 352.375 72.875C353.5 72.875 354.75 73.25 355.875 73.75C380.125 87.125 401.5 105.25 418.75 126.875C421.5 130.375 420.5 135.625 416.75 138L365.625 170C364.5 170.75 363.125 171 361.875 171ZM389.5 249C388.625 233.125 384.75 218.125 378.75 204.125C377.375 200.875 378.375 197 381.5 195.125L432.625 163.125C433.875 162.375 435.25 162 436.625 162C439.5 162 442.25 163.5 443.5 166.125C455.5 191.125 462.75 218.875 463.875 248.125C464 252.375 460.5 256 456.25 256H396.75C392.75 256 389.75 252.875 389.5 249ZM464 456.625C464 460.625 460.625 464 456.625 464H407.375C403.375 464 400 460.625 400 456.625V399.375C400 395.375 403.375 392 407.375 392H456.625C460.625 392 464 395.375 464 399.375V456.625ZM464 352.625C464 356.625 460.625 360 456.625 360H407.375C403.375 360 400 356.625 400 352.625V295.375C400 291.375 403.375 288 407.375 288H456.625C460.625 288 464 291.375 464 295.375V352.625Z"/></svg>
